public/library/algebra-finance-text-light.svg

<svg xmlns="http://www.w3.org/2000/svg" width="750" height="262" fill="none" viewBox="0 0 750 262"><path fill="#fff" d="M0 0h750v262H0z"/><path fill="#000" d="M258.469 99.29a3.34 3.34 0 0 1 2.542.898 7.7 7.7 0 0 1 1.483 2.678l25.859 66.577q.1.363.106.74a2.75 2.75 0 0 1-.847 2.008 2.8 2.8 0 0 1-2.013.828h-7.59a3.98 3.98 0 0 1-2.965-.88 5.3 5.3 0 0 1-1.165-1.762l-4.536-11.698h-33.344l-4.518 11.715a5.3 5.3 0 0 1-1.165 1.762 3.97 3.97 0 0 1-2.948.881h-7.625a2.86 2.86 0 0 1-2.005-.836 2.85 2.85 0 0 1-.837-2 2.3 2.3 0 0 1 .106-.74l25.859-66.595a7.4 7.4 0 0 1 1.465-2.695 3.33 3.33 0 0 1 2.542-.899zm5.808 46.246-11.597-29.95-11.615 29.95zM341.854 159.859a2.759 2.759 0 0 1 2.012.846 2.8 2.8 0 0 1 .83 1.991v7.487a2.82 2.82 0 0 1-2.842 2.836h-46.229a2.8 2.8 0 0 1-2.012-.828 2.72 2.72 0 0 1-.83-2.008v-68.057a2.7 2.7 0 0 1 .83-1.955 2.75 2.75 0 0 1 2.012-.846h8.543a2.897 2.897 0 0 1 2.86 2.836v57.698zM345.755 126.597a33.4 33.4 0 0 1 2.33-11.539 24.5 24.5 0 0 1 6.125-8.95 27.4 27.4 0 0 1 9.867-5.796 47.88 47.88 0 0 1 28.806.317 30 30 0 0 1 9.497 5.69 19.8 19.8 0 0 1 4.96 6.836 21.5 21.5 0 0 1 1.641 5.955 2.34 2.34 0 0 1-.794 2.061 3.04 3.04 0 0 1-2.065.793h-8.543a2.78 2.78 0 0 1-1.766-.582 3.9 3.9 0 0 1-1.006-1.215c-.141-.282-.512-.899-1.094-1.85a12.2 12.2 0 0 0-2.86-2.942 19.7 19.7 0 0 0-5.118-2.749 22.7 22.7 0 0 0-7.908-1.198 18.24 18.24 0 0 0-12.674 4.264 15.6 15.6 0 0 0-5.066 11.434c-.141 2.66-.211 5.514-.211 8.579s0 5.92.211 8.58q.318 8.81 5.066 12.702a19.27 19.27 0 0 0 12.674 3.947 28.6 28.6 0 0 0 7.166-.846 14.7 14.7 0 0 0 5.649-2.748 12.44 12.44 0 0 0 3.706-4.986 19.9 19.9 0 0 0 1.307-7.646v-.846h-12.868a2.76 2.76 0 0 1-2.012-.845 2.704 2.704 0 0 1-.848-1.991v-7.505a2.71 2.71 0 0 1 .848-1.991 2.75 2.75 0 0 1 2.012-.846h24.27a2.76 2.76 0 0 1 2.012.846 2.68 2.68 0 0 1 .83 1.991v11.592a32.7 32.7 0 0 1-1.995 11.645 24.5 24.5 0 0 1-6.019 9.161 28 28 0 0 1-10.025 6.008 47.1 47.1 0 0 1-27.96 0 26.7 26.7 0 0 1-9.814-5.902 25 25 0 0 1-6.107-9.055 35.3 35.3 0 0 1-2.277-11.645c0-1.339-.124-2.802-.159-4.422-.036-1.621 0-3.277 0-4.951v-4.951c0-1.603.141-3.1.212-4.404M467.018 159.859a2.896 2.896 0 0 1 2.86 2.836v7.488a2.74 2.74 0 0 1-.847 2.008 2.8 2.8 0 0 1-2.013.828h-46.334a2.86 2.86 0 0 1-2.842-2.836v-68.057a2.73 2.73 0 0 1 .847-1.991 2.72 2.72 0 0 1 1.995-.845h45.558a2.889 2.889 0 0 1 2.859 2.836v7.488a2.853 2.853 0 0 1-1.757 2.668 2.9 2.9 0 0 1-1.102.221h-34.155v16.754h31.772a2.73 2.73 0 0 1 1.994.846 2.74 2.74 0 0 1 .848 2.008v7.47a2.75 2.75 0 0 1-.848 2.008 2.68 2.68 0 0 1-1.994.828h-31.772v17.495zM480.522 173.019a2.86 2.86 0 0 1-2.842-2.836v-68.057a2.718 2.718 0 0 1 .918-1.955 2.7 2.7 0 0 1 1.994-.846h31.137a27.4 27.4 0 0 1 11.297 2.061 20.85 20.85 0 0 1 7.272 5.162 19.4 19.4 0 0 1 3.971 6.73 22 22 0 0 1 1.201 6.801 17.8 17.8 0 0 1-.83 5.637 16.7 16.7 0 0 1-2.065 4.211 18 18 0 0 1-2.436 2.889 10.6 10.6 0 0 1-1.942 1.586 23.1 23.1 0 0 1 5.949 6.289 18.02 18.02 0 0 1 2.701 10.218 22.5 22.5 0 0 1-1.483 7.946 21.7 21.7 0 0 1-4.325 7.047 21.5 21.5 0 0 1-7.06 5.109 23.55 23.55 0 0 1-9.867 1.938zm40.597-52.447a7.37 7.37 0 0 0-2.524-6.061 12.68 12.68 0 0 0-7.996-2.008h-18.675v16.226h18.675c2.84.202 5.667-.548 8.031-2.132a7.4 7.4 0 0 0 2.525-6.025zm-29.23 39.287h19.522c3.866 0 6.708-.828 8.49-2.466a9.1 9.1 0 0 0 2.743-6.51 9.1 9.1 0 0 0-2.743-6.51 12.18 12.18 0 0 0-8.402-2.519h-19.575zM574.885 99.29q13.185 0 20.052 6.113 6.865 6.114 6.849 16.948a23.6 23.6 0 0 1-3.531 13.125 20.9 20.9 0 0 1-10.396 8.052l14.562 26.021c.195.357.304.756.318 1.162a2.313 2.313 0 0 1-2.348 2.308h-8.967a4.22 4.22 0 0 1-3.106-.986 7.5 7.5 0 0 1-1.43-1.762l-13.821-24.541h-14.033v24.453a2.75 2.75 0 0 1-.847 2.008 2.8 2.8 0 0 1-2.012.828h-8.543a2.8 2.8 0 0 1-2.013-.828 2.73 2.73 0 0 1-.847-2.008v-68.057a2.896 2.896 0 0 1 2.86-2.836zm-15.886 33.174h15.304c3.33.161 6.643-.563 9.602-2.097 2.383-1.409 3.53-4.069 3.53-8.016s-1.2-6.554-3.53-7.892a19.7 19.7 0 0 0-9.549-1.956h-15.304zM647.59 98.419a3.34 3.34 0 0 1 2.542.898c.656.79 1.153 1.7 1.465 2.678l25.859 66.577c.075.239.111.489.106.74a2.862 2.862 0 0 1-2.842 2.836h-7.608a3.92 3.92 0 0 1-2.947-.881 5.3 5.3 0 0 1-1.165-1.762l-4.537-11.698h-33.36l-4.554 11.698a5 5 0 0 1-1.148 1.762 3.98 3.98 0 0 1-2.965.881h-7.59a2.8 2.8 0 0 1-2.012-.828 2.74 2.74 0 0 1-.848-2.008 2.4 2.4 0 0 1 .106-.74l25.859-66.577a7.7 7.7 0 0 1 1.483-2.678 3.32 3.32 0 0 1 2.524-.898zm5.755 46.246-11.615-29.95-11.597 29.95zM131.79 75.935v71.945a1.926 1.926 0 0 1-.97 1.676l-55.316 31.863a1.935 1.935 0 0 1-2.665-2.582l55.309-103.813c.948-1.77 3.642-1.104 3.642.911M135.434 75.935v71.945a1.934 1.934 0 0 0 .97 1.676l55.316 31.863a1.94 1.94 0 0 0 2.311-.287 1.94 1.94 0 0 0 .361-2.302L139.073 75.024c-.947-1.77-3.639-1.104-3.639.911M132.534 152.989l-54.281 31.4a1.93 1.93 0 0 0-.9 2.178 1.936 1.936 0 0 0 1.87 1.433h108.563a1.93 1.93 0 0 0 1.868-1.434 1.94 1.94 0 0 0-.9-2.177l-54.282-31.41a1.93 1.93 0 0 0-1.938.01"/></svg>

<svg width="750" height="262" viewBox="0 0 750 262" fill="none" xmlns="http://www.w3.org/2000/svg">
<rect width="750" height="262" fill="white"/>
<path d="M258.469 99.2898C258.932 99.2548 259.398 99.3166 259.835 99.4713C260.273 99.6261 260.673 99.8703 261.011 100.188C261.68 100.973 262.184 101.884 262.494 102.866L288.353 169.443C288.419 169.684 288.455 169.933 288.459 170.183C288.462 170.558 288.389 170.929 288.243 171.275C288.097 171.62 287.882 171.932 287.612 172.191C287.348 172.456 287.035 172.666 286.689 172.808C286.344 172.95 285.973 173.022 285.599 173.019H278.009C277.481 173.078 276.946 173.03 276.437 172.879C275.928 172.728 275.454 172.476 275.044 172.139C274.541 171.635 274.145 171.036 273.879 170.377L269.343 158.679H235.999L231.481 170.394C231.215 171.054 230.819 171.653 230.316 172.156C229.908 172.492 229.438 172.743 228.931 172.895C228.425 173.046 227.893 173.094 227.368 173.037H219.743C218.99 173.032 218.27 172.732 217.738 172.201C217.206 171.67 216.905 170.951 216.901 170.201C216.896 169.95 216.932 169.7 217.007 169.461L242.866 102.866C243.161 101.876 243.66 100.958 244.331 100.171C244.668 99.8527 245.069 99.6084 245.507 99.4537C245.944 99.299 246.41 99.2372 246.873 99.2722L258.469 99.2898ZM264.277 145.536L252.68 115.586L241.065 145.536H264.277Z" fill="black"/>
<path d="M341.854 159.859C342.229 159.856 342.601 159.929 342.947 160.074C343.293 160.22 343.606 160.434 343.866 160.705C344.13 160.965 344.339 161.275 344.482 161.617C344.624 161.959 344.697 162.325 344.696 162.696V170.183C344.698 170.556 344.626 170.926 344.484 171.271C344.342 171.616 344.133 171.93 343.868 172.194C343.604 172.458 343.29 172.667 342.944 172.808C342.598 172.95 342.228 173.022 341.854 173.019H295.625C295.251 173.022 294.881 172.95 294.535 172.808C294.19 172.666 293.876 172.456 293.613 172.191C293.344 171.931 293.132 171.619 292.989 171.273C292.847 170.928 292.777 170.557 292.783 170.183V102.126C292.783 101.761 292.856 101.4 292.999 101.064C293.141 100.728 293.35 100.424 293.613 100.171C293.873 99.9003 294.186 99.6857 294.532 99.5403C294.878 99.3949 295.25 99.3216 295.625 99.3251H304.168C304.921 99.3341 305.64 99.6353 306.174 100.165C306.708 100.694 307.014 101.41 307.028 102.161V159.859H341.854Z" fill="black"/>
<path d="M345.755 126.597C345.842 122.643 346.631 118.736 348.085 115.058C349.431 111.655 351.524 108.597 354.21 106.108C357.053 103.505 360.416 101.529 364.077 100.312C373.483 97.458 383.542 97.5687 392.883 100.629C396.375 101.921 399.595 103.851 402.38 106.319C404.506 108.215 406.198 110.547 407.34 113.155C408.17 115.051 408.723 117.056 408.981 119.11C409.029 119.492 408.981 119.88 408.843 120.239C408.704 120.599 408.479 120.919 408.187 121.171C407.623 121.685 406.886 121.968 406.122 121.964H397.579C396.941 121.978 396.317 121.773 395.813 121.382C395.399 121.049 395.057 120.636 394.807 120.167C394.666 119.885 394.295 119.268 393.713 118.317C392.932 117.182 391.966 116.188 390.853 115.375C389.293 114.211 387.568 113.285 385.735 112.626C383.191 111.761 380.513 111.355 377.827 111.428C373.214 111.194 368.683 112.718 365.153 115.692C363.564 117.146 362.294 118.912 361.422 120.88C360.55 122.847 360.096 124.974 360.087 127.126C359.946 129.786 359.876 132.64 359.876 135.705C359.876 138.771 359.876 141.625 360.087 144.285C360.299 150.158 361.988 154.392 365.153 156.987C368.775 159.762 373.267 161.161 377.827 160.934C380.242 160.956 382.65 160.672 384.993 160.088C387.052 159.589 388.979 158.651 390.642 157.34C392.28 156.017 393.555 154.302 394.348 152.354C395.28 149.915 395.724 147.317 395.655 144.708V143.862H382.787C382.411 143.866 382.039 143.792 381.693 143.647C381.347 143.502 381.035 143.287 380.775 143.017C380.504 142.761 380.289 142.452 380.144 142.109C379.998 141.767 379.924 141.398 379.927 141.026V133.521C379.924 133.149 379.998 132.78 380.144 132.437C380.289 132.095 380.504 131.786 380.775 131.53C381.035 131.26 381.347 131.045 381.693 130.9C382.039 130.754 382.411 130.681 382.787 130.684H407.057C407.433 130.681 407.805 130.754 408.151 130.9C408.497 131.045 408.81 131.26 409.069 131.53C409.338 131.787 409.55 132.096 409.692 132.439C409.835 132.782 409.906 133.15 409.899 133.521V145.113C409.946 149.083 409.27 153.029 407.904 156.758C406.615 160.226 404.558 163.357 401.885 165.919C399.004 168.604 395.588 170.651 391.86 171.927C382.755 174.758 373.004 174.758 363.9 171.927C360.24 170.691 356.891 168.678 354.086 166.025C351.407 163.492 349.322 160.4 347.979 156.97C346.568 153.244 345.798 149.307 345.702 145.325C345.702 143.986 345.578 142.523 345.543 140.903C345.507 139.282 345.543 137.626 345.543 135.952C345.543 134.278 345.543 132.605 345.543 131.001C345.543 129.398 345.684 127.901 345.755 126.597Z" fill="black"/>
<path d="M467.018 159.859C467.771 159.868 468.49 160.169 469.024 160.699C469.558 161.228 469.864 161.944 469.878 162.695V170.183C469.881 170.558 469.808 170.929 469.662 171.274C469.516 171.62 469.302 171.932 469.031 172.191C468.767 172.456 468.454 172.666 468.108 172.808C467.763 172.95 467.392 173.022 467.018 173.019H420.684C419.932 173.015 419.212 172.714 418.68 172.183C418.148 171.652 417.847 170.934 417.842 170.183V102.126C417.84 101.754 417.914 101.386 418.06 101.043C418.206 100.701 418.42 100.392 418.689 100.135C418.946 99.8654 419.255 99.651 419.599 99.5055C419.942 99.36 420.311 99.2865 420.684 99.2896H466.242C466.994 99.2987 467.714 99.5999 468.247 100.129C468.781 100.659 469.087 101.375 469.101 102.126V109.614C469.106 109.991 469.035 110.366 468.894 110.717C468.752 111.067 468.542 111.386 468.276 111.654C468.01 111.923 467.693 112.137 467.344 112.282C466.995 112.428 466.62 112.503 466.242 112.503H432.087V129.257H463.859C464.232 129.254 464.601 129.328 464.944 129.473C465.287 129.618 465.597 129.833 465.853 130.103C466.124 130.362 466.339 130.674 466.485 131.02C466.631 131.365 466.704 131.736 466.701 132.111V139.581C466.704 139.956 466.631 140.327 466.485 140.673C466.339 141.018 466.124 141.33 465.853 141.589C465.596 141.857 465.286 142.069 464.943 142.211C464.599 142.354 464.23 142.424 463.859 142.417H432.087V159.912L467.018 159.859Z" fill="black"/>
<path d="M480.522 173.019C479.769 173.015 479.049 172.714 478.517 172.183C477.985 171.653 477.684 170.934 477.68 170.183V102.126C477.691 101.755 477.779 101.39 477.937 101.054C478.095 100.718 478.319 100.417 478.598 100.171C478.854 99.9007 479.164 99.6864 479.507 99.5409C479.85 99.3954 480.219 99.3219 480.592 99.325H511.729C515.598 99.2051 519.449 99.9077 523.026 101.386C525.795 102.563 528.276 104.324 530.298 106.548C532.066 108.499 533.417 110.789 534.269 113.278C535.026 115.468 535.431 117.763 535.47 120.079C535.497 121.99 535.217 123.893 534.64 125.716C534.153 127.209 533.458 128.627 532.575 129.927C531.866 130.972 531.049 131.94 530.139 132.816C529.557 133.419 528.905 133.952 528.197 134.402C530.559 136.106 532.578 138.239 534.146 140.691C536.048 143.752 536.988 147.311 536.847 150.909C536.837 153.625 536.335 156.317 535.364 158.855C534.387 161.458 532.919 163.85 531.039 165.902C529.06 168.068 526.657 169.807 523.979 171.011C520.868 172.36 517.502 173.021 514.112 172.949L480.522 173.019ZM521.119 120.572C521.195 119.436 521.007 118.298 520.569 117.246C520.131 116.195 519.456 115.259 518.595 114.511C516.229 112.97 513.414 112.263 510.599 112.503H491.924V128.729H510.599C513.439 128.931 516.266 128.181 518.63 126.597C519.485 125.852 520.157 124.922 520.595 123.877C521.032 122.833 521.224 121.702 521.155 120.572H521.119ZM491.889 159.859H511.411C515.277 159.859 518.119 159.031 519.901 157.393C520.77 156.544 521.46 155.532 521.931 154.414C522.402 153.296 522.644 152.096 522.644 150.883C522.644 149.67 522.402 148.47 521.931 147.352C521.46 146.234 520.77 145.221 519.901 144.373C517.512 142.519 514.517 141.621 511.499 141.854H491.924L491.889 159.859Z" fill="black"/>
<path d="M574.885 99.2898C583.675 99.2898 590.359 101.328 594.937 105.403C599.514 109.479 601.797 115.128 601.786 122.351C601.922 126.977 600.695 131.541 598.255 135.476C595.749 139.207 592.102 142.031 587.859 143.528L602.421 169.549C602.616 169.906 602.725 170.305 602.739 170.711C602.739 171.018 602.678 171.321 602.559 171.603C602.441 171.885 602.267 172.141 602.049 172.356C601.83 172.571 601.571 172.74 601.287 172.854C601.002 172.968 600.698 173.024 600.391 173.019H591.424C590.867 173.069 590.305 173.007 589.772 172.838C589.238 172.668 588.744 172.395 588.318 172.033C587.754 171.522 587.272 170.927 586.888 170.271L573.067 145.73H559.034V170.183C559.038 170.558 558.964 170.929 558.819 171.275C558.673 171.62 558.458 171.932 558.187 172.191C557.924 172.456 557.61 172.666 557.265 172.808C556.919 172.95 556.549 173.022 556.175 173.019H547.632C547.258 173.022 546.887 172.95 546.542 172.808C546.196 172.666 545.883 172.456 545.619 172.191C545.348 171.932 545.133 171.62 544.988 171.275C544.842 170.929 544.769 170.558 544.772 170.183V102.126C544.786 101.375 545.092 100.659 545.626 100.13C546.16 99.6 546.879 99.2988 547.632 99.2898H574.885ZM558.999 132.464H574.303C577.633 132.625 580.946 131.901 583.905 130.367C586.288 128.958 587.435 126.298 587.435 122.351C587.435 118.405 586.235 115.797 583.905 114.459C580.937 113.017 577.653 112.345 574.356 112.503H559.052L558.999 132.464Z" fill="black"/>
<path d="M647.59 98.4185C648.053 98.3834 648.518 98.4453 648.956 98.6C649.394 98.7547 649.794 98.9989 650.132 99.317C650.788 100.107 651.285 101.017 651.597 101.995L677.456 168.572C677.531 168.811 677.567 169.061 677.562 169.312C677.557 170.062 677.256 170.781 676.724 171.312C676.193 171.843 675.472 172.143 674.72 172.148H667.112C666.587 172.207 666.055 172.16 665.548 172.008C665.042 171.857 664.571 171.605 664.165 171.267C663.662 170.764 663.265 170.165 663 169.505L658.463 157.807H625.103L620.549 169.505C620.295 170.167 619.904 170.767 619.401 171.267C618.991 171.605 618.517 171.856 618.008 172.008C617.499 172.159 616.964 172.207 616.436 172.148H608.846C608.472 172.151 608.102 172.079 607.756 171.937C607.41 171.794 607.097 171.585 606.834 171.32C606.563 171.061 606.348 170.749 606.202 170.403C606.056 170.058 605.983 169.686 605.986 169.312C605.982 169.061 606.018 168.811 606.092 168.572L631.951 101.995C632.261 101.012 632.765 100.102 633.434 99.317C633.769 99.0003 634.166 98.7568 634.601 98.6021C635.036 98.4474 635.498 98.3848 635.958 98.4185H647.59ZM653.345 144.665L641.73 114.715L630.133 144.665H653.345Z" fill="black"/>
<path d="M131.79 75.935V147.88C131.79 148.22 131.7 148.554 131.53 148.849C131.36 149.143 131.115 149.387 130.82 149.556L75.5039 181.419C75.1406 181.623 74.7208 181.705 74.3073 181.652C73.8937 181.598 73.5085 181.413 73.2089 181.122C72.9094 180.832 72.7116 180.453 72.645 180.041C72.5784 179.629 72.6465 179.207 72.8393 178.837L128.148 75.0242C129.096 73.2544 131.79 73.9202 131.79 75.935Z" fill="black"/>
<path d="M135.434 75.935V147.88C135.434 148.22 135.524 148.554 135.695 148.848C135.865 149.142 136.109 149.386 136.404 149.556L191.72 181.419C192.084 181.628 192.507 181.714 192.924 181.662C193.341 181.61 193.73 181.424 194.031 181.132C194.333 180.839 194.532 180.456 194.597 180.041C194.662 179.626 194.59 179.2 194.392 178.83L139.073 75.0242C138.126 73.2544 135.434 73.9202 135.434 75.935Z" fill="black"/>
<path d="M132.534 152.989L78.2525 184.389C77.8838 184.602 77.5957 184.931 77.4329 185.325C77.2702 185.719 77.2419 186.155 77.3524 186.567C77.4629 186.978 77.7061 187.342 78.0442 187.601C78.3823 187.86 78.7964 188 79.2224 188H187.786C188.212 188 188.626 187.859 188.963 187.6C189.301 187.34 189.544 186.977 189.654 186.566C189.764 186.154 189.736 185.718 189.573 185.324C189.41 184.931 189.122 184.602 188.754 184.389L134.472 152.979C134.176 152.81 133.842 152.722 133.502 152.724C133.162 152.726 132.828 152.817 132.534 152.989Z" fill="black"/>
</svg>
